!!!COM: Charles Gounod
!!!CNT: Francais
!!!TXO: Francais
!!!OTL: Mon Habit
!!!LYR: Pierre Jean de Be/ranger
!!!ENC: Jacob Pegg
!!!YOR: Romantic French Song 1830-1870 -David Tunley, ed.,
!!!YOR: New York: Garland Publishing, Inc., 1995, Vol. 5
!!!ODT: 1857/
!!NB: Vocal melody and text only encoded.
!!NB: First instance of melodic material only encoded.
**kern	**silbe
*clef G2	*
*k[b-]	*
*M4/4	*
*MM[andantino]	*
!!created: 6/17/03 23:29
!!proofed and posted: 7/21/03 23:56
=6	=6
{4f	{Sois~
8g	~moi
8g	fi-
4.a	-de\-
8a	-le, o^
=7	=7
8a	pau-
8a	-vre
8cc	ha-
8g	-bit
4g	que
8f}	j'aime!}
8r	.
=8	=8
{4g	{En-
8a	-sem-
8a	-ble
8b-	nous
8b-	de-
8a	-ve-
8cc	-nons
=9	=9
[4g	vieux.
8g]}	|}
8r	.
2r	.
=10	=10
{4a	{De-
8b-	-puis
8b-	dix
4cc	ans
8cc	je
8cc	te
=11	=11
4cc	bros-
8dd	-se
8a	moi
4cc	me^-
8bn}	-me,}
8r	.
=12	=12
{4cc	{Et
8bn	So-
8a	-cra-
8g	-te
8a	n'eut
8g	pas
8a	fait
=13	=13
8g}	mieux!}
8r	.
8r	.
{8ee	{So-
8dd	-cra-
8cc	-te,
8r	.
8cc	So-
=14	=14
(8cc	-cra-
8bn)	|
8a	-te
8dd	n'eut
4.bn	pas
8bn	fait
=15	=15
4cc}	mieux!}
4r	.
{4b-	{Quand
4a	le
=16	=16
4g	sort
8b-	a\
8dd	ta
4.cc	mince
8b-	e/-
=17	=17
4b-	-tof-
8a}	-fe}
8r	.
{(8cc	{Li-
8ff)	|
(8ee	-vre-
8dd)	|
=18	=18
(8cc	-rait
8b-)	|
8dd	de
8cc	nou-
(8b-	-veaux
8a)	|
(8g	com-
8f)	|
=19	=19
4cc}	-bats,}
4r	.
{4a	{I-
8g	-mi-
8f#	-te~
=20	=20
(4f#	~moi,
8g)	|
8b-	re/-
8b-	-siste
8b-	en
8a	phi-
8g#	-lo-
=21	=21
4g#	-soph-
8a}	-e,}
8r	.
{4cc	{Mon
8cc	vieil
8gn	a-
=22	=22
4a}	-mi,}
8r	.
{8cc	{ne
8cc	nous
8dd	se/-
8cc	-pa-
8g	-rons
=23	=23
[4a	pas!
8a]}	|}
8r	.
{4dd	{Mon
8dd	vieil
8cc	a-
=24	=24
8cc	-mi,
8b-	ne
8a	nous
8g	se/-
4a	-pa-
4g	-rons
=25	=25
4f}	pas!}
4r	.
2r	.
*-	*-
